X:360
T: Sixty-Ninth Street
S: Reavy Collection: "Music of Corktown"
Z: B.Black
M: 2/4
L: 1/8
R: polka
K: Ador
A>B cd|ea e>e|dB GB|AB GB|
A>B cd|ea e>e|dB GB|A2 A2 :|
aa e>e|aa e>e|dB GB|AB GB|
|1 aa e>e|aa e>e|dB GB|A2 A2 :|
|2 A>B cd|ea e>e|dB GB|A2 A2 ||
